icons/cspell.svg

<!--
  - The MIT License (MIT)
  -
  - Copyright (c) 2015-2024 Elior "Mallowigi" Boukhobza
  -
  - Permission is hereby granted, free of charge, to any person obtaining a copy
  - of this software and associated documentation files (the "Software"), to deal
  - in the Software without restriction, including without limitation the rights
  - to use, copy, modify, merge, publish, distribute, sublicense, and/or sell
  - copies of the Software, and to permit persons to whom the Software is
  - furnished to do so, subject to the following conditions:
  -
  - The above copyright notice and this permission notice shall be included in all
  - copies or substantial portions of the Software.
  -
  - THE SOFTWARE IS PROVIDED "AS IS", WITHOUT WARRANTY OF ANY KIND, EXPRESS OR
  - IMPLIED, INCLUDING BUT NOT LIMITED TO THE WARRANTIES OF MERCHANTABILITY,
  - FITNESS FOR A PARTICULAR PURPOSE AND NONINFRINGEMENT. IN NO EVENT SHALL THE
  - AUTHORS OR COPYRIGHT HOLDERS BE LIABLE FOR ANY CLAIM, DAMAGES OR OTHER
  - LIABILITY, WHETHER IN AN ACTION OF CONTRACT, TORT OR OTHERWISE, ARISING FROM,
  - OUT OF OR IN CONNECTION WITH THE SOFTWARE OR THE USE OR OTHER DEALINGS IN THE
  - SOFTWARE.
  -
  -->

<svg  xmlns="http://www.w3.org/2000/svg" version="1.1" width="16px" height="16px" viewBox="0 0 160 160"
>
  <g fill="#b41900" data-iconColor="CSpell">
    <g>
      <path
          d="M 61.5,-0.5 C 94.1667,-0.5 126.833,-0.5 159.5,-0.5C 159.5,31.8333 159.5,64.1667 159.5,96.5C 126.833,96.5 94.1667,96.5 61.5,96.5C 61.5,64.1667 61.5,31.8333 61.5,-0.5 Z"/>
    </g>
    <g>
      <path
          d="M -0.5,107.5 C 16.1667,107.5 32.8333,107.5 49.5,107.5C 49.5,124.833 49.5,142.167 49.5,159.5C 32.8333,159.5 16.1667,159.5 -0.5,159.5C -0.5,142.167 -0.5,124.833 -0.5,107.5 Z"/>
    </g>
    <g>
      <path
          d="M 159.5,107.5 C 159.5,124.833 159.5,142.167 159.5,159.5C 126.833,159.5 94.1667,159.5 61.5,159.5C 61.5,142.167 61.5,124.833 61.5,107.5C 94.1667,107.5 126.833,107.5 159.5,107.5 Z"/>
    </g>
  </g>
</svg>

<svg xmlns="http://www.w3.org/2000/svg" viewBox="0 0 160 160"><path fill="#b41900" d="M61.5-.5h98v97h-98zm-62 108h50v52h-50zm160 0v52h-98v-52z" data-iconColor="CSpell"/></svg>
